X: 150645
T: Ostenelli's
M: 4/4
L: 1/8
S: Luke O'Malley vol 1 
Z: B.Black
R: hornpipe
K: A
cd |eAfA eAaA |c'AaA eAfA |eagf edcd |(3efe ce BcdB |
eAfA eAaA | c'AaA eAfA |eagf (3efe (3EFG |Aaec A2 :|
ED |CAEc Aeca |ee'c'a ec'ac'|d'c'ba c'aec |dcBA GFED |
CAEc Aeca |ee'c'a ec'af |eagf (3efe (3EFG |Aaec A2 :|
